image/icon/Pond.svg

<!--version="1.0" encoding="UTF-8"--><svg version="1.1" id="Layer_1" xmlns="http://www.w3.org/2000/svg" width="43" height="35" xml:space="preserve"><g id="PathID_60" transform="matrix(1, 0, 0, 1, 21, 17.15)"><path style="fill: rgb(0, 0, 0); fill-opacity: 1;" d="m14.4-16.35.95.05.6-.05.35-.35 1.1-.45h.05q.65 0 1.15.5l.6.9.25 1q-.05.5-.45.9l-.15.15.25 1.4.05.1q.6 2.05-.2 3.05l-.8 1q-.2.35-.6.5.1.9-.4 1.6L16.4-4.9l-.45.5q.1.8-.25 1.55l-.25.4-.5 1-.3.4.05.4.1-.05L18-2.05l.65-.15.75.15q1.05.6 1.55 2.05.4 1.1-.6 1.85-1.75 1.2-3.25 2.9-1.8 2.05-1.95 3.45l-.35.9-.15.15L14 10l-.35.3 1.65 2.2q.65 1 .1 2.1l-.6.8-1.45 1q-1.45.75-2.65.75-1.35 0-2.05-.95l-.7-.95Q5.6 12 4.3 10.75 2 8.6-.45 8.35l-.9-.05q-2.7 0-5.1 1.5-2.35 1.5-3.8 4.05-.95 1.65-3.75 2.3l-.85.05q-1.4 0-2.1-1-.5-1.05.05-2.15 1.1-1.9 2.4-3.3l-.1-.1-.5-1q-.15-1.4-1.95-3.45-1.45-1.65-3.2-2.9-1-.65-.65-1.9.55-1.5 1.55-2l.75-.2.65.15 3.3 1.45.05-.45-.3-.4-.5-1-.25-.4q-.35-.7-.25-1.5l-.45-.5-.75-1.2q-.5-.7-.4-1.55l-.6-.55-.6-.75-.2-.2q-.8-1-.2-3.1l.05-.05.25-1.45-.15-.15q-.8-.8-.2-1.9l.6-.9q.5-.5 1.15-.5h.05q.65 0 1.1.45l.35.35.6.05.95-.05h.15l.8-.05q1.55 0 2.35.95l.05.1.95 1.2q.3.45.3.95 1.15.3 1.7 1.15l1 1.5.2.85q1 .35 1.5 1.25l.9 1.8.2.7Q-3.3-5-3-4.1l.85 1.95.1.7q.8.6 1.05 1.4l.05.1.7 2.25.05.6.35-.05H.3V1.9L1-.4l.05-.05Q1.3-1.3 2.1-1.9l.1-.65.85-2q.35-.85 1.25-1.4l.2-.75.9-1.75q.45-.85 1.5-1.3l.2-.8 1-1.55q.55-.8 1.7-1.1 0-.55.3-.95l.95-1.2.05-.1q.8-.95 2.35-.95h.85l.1.05m-2.15 2.75 1.3-.1-2.1 1.95q-1.6 0-2 .55L8.5-9.7l.9-.55 1.5-.25-1.95 2q-1.8.2-2.1.85l-.9 1.7.9-.65Q7.6-7 8.5-7.1L6.8-5q-1.95.35-2.25 1.1l-.85 2 .95-.85q.85-.55 1.7-.7L4.9-1.35Q2.85-.75 2.55.1l-.7 2.3.95-1Q3.6.7 4.6.45L6.75.4l.2.05Q6.1 2.3 5.2 5.05 2.8 4.3.25 4.5q-2.85.25-5.35 1.1L-6.9.85l.2-.05 2.15.05q.9.2 1.8.95l.95 1-.7-2.25Q-2.85-.4-4.85-.9L-6.3-3q1 .2 1.7.7l.95.8-.8-2q-.35-.75-2.3-1.1l-1.7-2.05 1.65.45.9.65-.9-1.7q-.3-.6-2.1-.8l-1.95-2.05 1.5.3.9.5-.95-1.45q-.35-.55-2-.55l-2.1-2 1.3.15.85.35-.95-1.2q-.4-.45-1.8-.35l-2.65-.15-.6-.6-.4.6.45.5q.25.9-.2 2.6-.45 1.35-.15 1.7l.85 1.05-.1-.8.2-1.3 1.2 2.4q-.55 1.45-.25 1.85l.8 1.25v-.9l.35-1.4.9 2.35q-.75 1.45-.5 2.05l.75 1.4.05-1 .6-1.45.55 2.3Q-13.2-.35-13 .25l.45 2.25-6.05-2.65q-.55.25-.75 1.1l2.8 2.45q2.85 2.9 3.05 5.1l.75.85-.05-.7.15-1.15.65-1.25.1-.05 1.5 2.1q-3.35 2.4-5.05 5.55-.35.55.2.75h.95q2.1-.5 2.65-1.5 1.75-3.15 4.7-4.85Q-3.8 6.45-.3 6.8q3.2.3 5.95 3.05l4.3 5.4q.55.8 2.55-.2 1.95-.95 1.5-1.55l-3.05-4-.65-.8-.25-.25 1.9-2.7.1.1.65 1.2.15 1.2-.05.7.75-.85q.1-1.4 1.25-3L16.6 3Q18 1.55 19.4.55q-.2-.85-.75-1.1l-6.05 2.6.45-2.25q.2-.55-.75-2.1l.55-2.35.6 1.5.05 1 .75-1.45q.3-.5-.5-2l.9-2.35.15.35.2 1v.95l.8-1.25q.3-.45-.25-1.9l1.2-2.35.2 1.25-.1.85.85-1.05q.3-.4-.15-1.7-.45-1.75-.2-2.6l.45-.55-.4-.55-.6.55-2 .25-.65-.05q-1.45-.1-1.8.35l-.95 1.2.85-.4m-1 18.65-2 2.05-1.9-1 .2-1.15Q8 2.4 8.4 1l.2.05 1.15.9.65.7.7.9-.55-.1q-1.4-.15-1.8.25l-.3.6q-.1.3.1.25l1.35-.1 1.25.5.1.1m-19.75-.1q.2.1.15-.25l-.35-.6-1.8-.25-.55.1 1.05-1.2 1.45-1.3.2-.05q.4 1.4.85 3.95l.2 1.15-1.9 1-2-2 .1-.1q.65-.5 1.25-.55l1.35.1"/><path style="fill: rgb(255, 255, 255); fill-opacity: 1;" d="m11.4-13.2.95-1.2q.35-.45 1.8-.35l.65.05 2-.25.6-.55.4.55-.45.55q-.25.85.2 2.6.45 1.3.15 1.7l-.85 1.05.1-.85-.2-1.25-1.2 2.35q.55 1.45.25 1.9L15-5.65v-.95l-.2-1-.15-.35-.9 2.35q.8 1.5.5 2l-.75 1.45-.05-1-.6-1.5-.55 2.35q.95 1.55.75 2.1l-.45 2.25 6.05-2.6q.55.25.75 1.1-1.4 1-2.8 2.45l-1.8 2.1q-1.15 1.6-1.25 3l-.75.85.05-.7-.15-1.2-.65-1.2-.1-.1-1.9 2.7.25.25.65.8 3.05 4q.45.6-1.5 1.55-2 1-2.55.2l-4.3-5.4Q2.9 7.1-.3 6.8q-3.5-.35-6.65 1.45-2.95 1.7-4.7 4.85-.55 1-2.65 1.5h-.95q-.55-.2-.2-.75 1.7-3.15 5.05-5.55l-1.5-2.1-.1.05-.65 1.25-.15 1.15.05.7-.75-.85q-.2-2.2-3.05-5.1l-2.8-2.45q.2-.85.75-1.1l6.05 2.65L-13 .25q-.2-.6.75-2.15l-.55-2.3-.6 1.45-.05 1-.75-1.4q-.25-.6.5-2.05l-.9-2.35-.35 1.4v.9l-.8-1.25q-.3-.4.25-1.85l-1.2-2.4-.2 1.3.1.8-.85-1.05q-.3-.35.15-1.7.45-1.7.2-2.6l-.45-.5.4-.6.6.6 2.65.15q1.4-.1 1.8.35l.95 1.2-.85-.35-1.3-.15 2.1 2q1.65 0 2 .55l.95 1.45-.9-.5-1.5-.3 1.95 2.05q1.8.2 2.1.8l.9 1.7-.9-.65-1.65-.45 1.7 2.05q1.95.35 2.3 1.1l.8 2-.95-.8q-.7-.5-1.7-.7l1.45 2.1q2 .5 2.35 1.45l.7 2.25-.95-1q-.9-.75-1.8-.95L-6.7.8l-.2.05 1.8 4.75q2.5-.85 5.35-1.1 2.55-.2 4.95.55.9-2.75 1.75-4.6L6.75.4 4.6.45q-1 .25-1.8.95l-.95 1 .7-2.3q.3-.85 2.35-1.45l1.45-2.1q-.85.15-1.7.7l-.95.85.85-2q.3-.75 2.25-1.1l1.7-2.1q-.9.1-1.65.5l-.9.65.9-1.7q.3-.65 2.1-.85l1.95-2-1.5.25-.9.55.95-1.5q.4-.55 2-.55l2.1-1.95-1.3.1-.85.4m-.25 18.15-1.25-.5-1.35.1q-.2.05-.1-.25l.3-.6q.4-.4 1.8-.25l.55.1-.7-.9-.65-.7-1.15-.9L8.4 1Q8 2.4 7.55 4.95l-.2 1.15 1.9 1 2-2.05-.1-.1m-21-.1q-.6.05-1.25.55l-.1.1 2 2 1.9-1-.2-1.15q-.45-2.55-.85-3.95l-.2.05-1.45 1.3-1.05 1.2.55-.1 1.8.25.35.6q.05.35-.15.25l-1.35-.1"/></g></svg>

<?xml version="1.0" encoding="UTF-8"?>
<svg version="1.1" id="Layer_1" xmlns="http://www.w3.org/2000/svg" xmlns:xlink="http://www.w3.org/1999/xlink" width="43px" height="35px" xml:space="preserve">
<g id="PathID_60" transform="matrix(1, 0, 0, 1, 21, 17.15)">
<path style="fill:#000000;fill-opacity:1" d="M14.4 -16.35L15.35 -16.3L15.95 -16.35L16.3 -16.7L17.4 -17.15L17.45 -17.15Q18.1 -17.15 18.6 -16.65L19.2 -15.75L19.45 -14.75Q19.4 -14.25 19 -13.85L18.85 -13.7L19.1 -12.3L19.15 -12.2Q19.75 -10.15 18.95 -9.15L18.15 -8.15Q17.95 -7.8 17.55 -7.65Q17.65 -6.75 17.15 -6.05L16.4 -4.9L15.95 -4.4Q16.05 -3.6 15.7 -2.85L15.45 -2.45L14.95 -1.45L14.65 -1.05L14.7 -0.65L14.8 -0.7L18 -2.05L18.65 -2.2L19.4 -2.05Q20.45 -1.45 20.95 0Q21.35 1.1 20.35 1.85Q18.6 3.05 17.1 4.75Q15.3 6.8 15.15 8.2L14.8 9.1L14.65 9.25L14 10L13.65 10.3L15.3 12.5Q15.95 13.5 15.4 14.6L14.8 15.4L13.35 16.4Q11.9 17.15 10.7 17.15Q9.35 17.15 8.65 16.2L7.95 15.25Q5.6 12 4.3 10.75Q2 8.6 -0.45 8.35L-1.35 8.3Q-4.05 8.3 -6.45 9.8Q-8.8 11.3 -10.25 13.85Q-11.2 15.5 -14 16.15L-14.85 16.2Q-16.25 16.2 -16.95 15.2Q-17.45 14.15 -16.9 13.05Q-15.8 11.15 -14.5 9.75L-14.6 9.65L-15.1 8.65Q-15.25 7.25 -17.05 5.2Q-18.5 3.55 -20.25 2.3Q-21.25 1.65 -20.9 0.4Q-20.35 -1.1 -19.35 -1.6L-18.6 -1.8L-17.95 -1.65L-14.65 -0.2L-14.6 -0.65L-14.9 -1.05L-15.4 -2.05L-15.65 -2.45Q-16 -3.15 -15.9 -3.95L-16.35 -4.45L-17.1 -5.65Q-17.6 -6.35 -17.5 -7.2L-18.1 -7.75L-18.7 -8.5L-18.9 -8.7Q-19.7 -9.7 -19.1 -11.8L-19.05 -11.85L-18.8 -13.3L-18.95 -13.45Q-19.75 -14.25 -19.15 -15.35L-18.55 -16.25Q-18.05 -16.75 -17.4 -16.75L-17.35 -16.75Q-16.7 -16.75 -16.25 -16.3L-15.9 -15.95L-15.3 -15.9L-14.35 -15.95L-14.2 -15.95L-13.4 -16Q-11.85 -16 -11.05 -15.05L-11 -14.95L-10.05 -13.75Q-9.75 -13.3 -9.75 -12.8Q-8.6 -12.5 -8.05 -11.65L-7.05 -10.15L-6.85 -9.3Q-5.85 -8.95 -5.35 -8.05L-4.45 -6.25L-4.25 -5.55Q-3.3 -5 -3 -4.1L-2.15 -2.15L-2.05 -1.45Q-1.25 -0.85 -1 -0.05L-0.95 0.05L-0.25 2.3L-0.2 2.9L0.15 2.85L0.3 2.85L0.3 1.9L1 -0.4L1.05 -0.45Q1.3 -1.3 2.1 -1.9L2.2 -2.55L3.05 -4.55Q3.4 -5.4 4.3 -5.95L4.5 -6.7L5.4 -8.45Q5.85 -9.3 6.9 -9.75L7.1 -10.55L8.1 -12.1Q8.65 -12.9 9.8 -13.2Q9.8 -13.75 10.1 -14.15L11.05 -15.35L11.1 -15.45Q11.9 -16.4 13.45 -16.4L14.3 -16.4L14.4 -16.35M12.25 -13.6L13.55 -13.7L11.45 -11.75Q9.85 -11.75 9.45 -11.2L8.5 -9.7L9.4 -10.25L10.9 -10.5L8.95 -8.5Q7.15 -8.3 6.85 -7.65L5.95 -5.95L6.85 -6.6Q7.6 -7 8.5 -7.1L6.8 -5Q4.85 -4.65 4.55 -3.9L3.7 -1.9L4.65 -2.75Q5.5 -3.3 6.35 -3.45L4.9 -1.35Q2.85 -0.75 2.55 0.1L1.85 2.4L2.8 1.4Q3.6 0.7 4.6 0.45L6.75 0.4L6.95 0.45Q6.1 2.3 5.2 5.05Q2.8 4.3 0.25 4.5Q-2.6 4.75 -5.1 5.6L-6.9 0.85L-6.7 0.8L-4.55 0.85Q-3.65 1.05 -2.75 1.8L-1.8 2.8L-2.5 0.55Q-2.85 -0.4 -4.85 -0.9L-6.3 -3Q-5.3 -2.8 -4.6 -2.3L-3.65 -1.5L-4.45 -3.5Q-4.8 -4.25 -6.75 -4.6L-8.45 -6.65L-6.8 -6.2L-5.9 -5.55L-6.8 -7.25Q-7.1 -7.85 -8.9 -8.05L-10.85 -10.1L-9.35 -9.8L-8.45 -9.3L-9.4 -10.75Q-9.75 -11.3 -11.4 -11.3L-13.5 -13.3L-12.2 -13.15L-11.35 -12.8L-12.3 -14Q-12.7 -14.45 -14.1 -14.35L-16.75 -14.5L-17.35 -15.1L-17.75 -14.5L-17.3 -14Q-17.05 -13.1 -17.5 -11.4Q-17.95 -10.05 -17.65 -9.7L-16.8 -8.65L-16.9 -9.45L-16.7 -10.75L-15.5 -8.35Q-16.05 -6.9 -15.75 -6.5L-14.95 -5.25L-14.95 -6.15L-14.6 -7.55L-13.7 -5.2Q-14.45 -3.75 -14.2 -3.15L-13.45 -1.75L-13.4 -2.75L-12.8 -4.2L-12.25 -1.9Q-13.2 -0.35 -13 0.25L-12.55 2.5L-18.6 -0.15Q-19.15 0.1 -19.35 0.95L-16.55 3.4Q-13.7 6.3 -13.5 8.5L-12.75 9.35L-12.8 8.65L-12.65 7.5L-12 6.25L-11.9 6.2L-10.4 8.3Q-13.75 10.7 -15.45 13.85Q-15.8 14.4 -15.25 14.6L-14.3 14.6Q-12.2 14.1 -11.65 13.1Q-9.9 9.95 -6.95 8.25Q-3.8 6.45 -0.3 6.8Q2.9 7.1 5.65 9.85L9.95 15.25Q10.5 16.05 12.5 15.05Q14.45 14.1 14 13.5L10.95 9.5L10.3 8.7L10.05 8.45L11.95 5.75L12.05 5.85L12.7 7.05L12.85 8.25L12.8 8.95L13.55 8.1Q13.65 6.7 14.8 5.1L16.6 3Q18 1.55 19.4 0.55Q19.2 -0.3 18.65 -0.55L12.6 2.05L13.05 -0.2Q13.25 -0.75 12.3 -2.3L12.85 -4.65L13.45 -3.15L13.5 -2.15L14.25 -3.6Q14.55 -4.1 13.75 -5.6L14.65 -7.95L14.8 -7.6L15 -6.6L15 -5.65L15.8 -6.9Q16.1 -7.35 15.55 -8.8L16.75 -11.15L16.95 -9.9L16.85 -9.05L17.7 -10.1Q18 -10.5 17.55 -11.8Q17.1 -13.55 17.35 -14.4L17.8 -14.95L17.4 -15.5L16.8 -14.95L14.8 -14.7L14.15 -14.75Q12.7 -14.85 12.35 -14.4L11.4 -13.2L12.25 -13.6M11.25 5.05L9.25 7.1L7.35 6.1L7.55 4.95Q8 2.4 8.4 1L8.6 1.05L9.75 1.95L10.4 2.65L11.1 3.55L10.55 3.45Q9.15 3.3 8.75 3.7L8.45 4.3Q8.35 4.6 8.55 4.55L9.9 4.45L11.15 4.95L11.25 5.05M-8.5 4.95Q-8.3 5.05 -8.35 4.7L-8.7 4.1L-10.5 3.85L-11.05 3.95L-10 2.75L-8.55 1.45L-8.35 1.4Q-7.95 2.8 -7.5 5.35L-7.3 6.5L-9.2 7.5L-11.2 5.5L-11.1 5.4Q-10.45 4.9 -9.85 4.85L-8.5 4.95"/>
<path style="fill:#FFFFFF;fill-opacity:1" d="M11.4 -13.2L12.35 -14.4Q12.7 -14.85 14.15 -14.75L14.8 -14.7L16.8 -14.95L17.4 -15.5L17.8 -14.95L17.35 -14.4Q17.1 -13.55 17.55 -11.8Q18 -10.5 17.7 -10.1L16.85 -9.05L16.95 -9.9L16.75 -11.15L15.55 -8.8Q16.1 -7.35 15.8 -6.9L15 -5.65L15 -6.6L14.8 -7.6L14.65 -7.95L13.75 -5.6Q14.55 -4.1 14.25 -3.6L13.5 -2.15L13.45 -3.15L12.85 -4.65L12.3 -2.3Q13.25 -0.75 13.05 -0.2L12.6 2.05L18.65 -0.55Q19.2 -0.3 19.4 0.55Q18 1.55 16.6 3L14.8 5.1Q13.65 6.7 13.55 8.1L12.8 8.95L12.85 8.25L12.7 7.05L12.05 5.85L11.95 5.75L10.05 8.45L10.3 8.7L10.95 9.5L14 13.5Q14.45 14.1 12.5 15.05Q10.5 16.05 9.95 15.25L5.65 9.85Q2.9 7.1 -0.3 6.8Q-3.8 6.45 -6.95 8.25Q-9.9 9.95 -11.65 13.1Q-12.2 14.1 -14.3 14.6L-15.25 14.6Q-15.8 14.4 -15.45 13.85Q-13.75 10.7 -10.4 8.3L-11.9 6.2L-12 6.25L-12.65 7.5L-12.8 8.65L-12.75 9.35L-13.5 8.5Q-13.7 6.3 -16.55 3.4L-19.35 0.95Q-19.15 0.1 -18.6 -0.15L-12.55 2.5L-13 0.25Q-13.2 -0.35 -12.25 -1.9L-12.8 -4.2L-13.4 -2.75L-13.45 -1.75L-14.2 -3.15Q-14.45 -3.75 -13.7 -5.2L-14.6 -7.55L-14.95 -6.15L-14.95 -5.25L-15.75 -6.5Q-16.05 -6.9 -15.5 -8.35L-16.7 -10.75L-16.9 -9.45L-16.8 -8.65L-17.65 -9.7Q-17.95 -10.05 -17.5 -11.4Q-17.05 -13.1 -17.3 -14L-17.75 -14.5L-17.35 -15.1L-16.75 -14.5L-14.1 -14.35Q-12.7 -14.45 -12.3 -14L-11.35 -12.8L-12.2 -13.15L-13.5 -13.3L-11.4 -11.3Q-9.75 -11.3 -9.4 -10.75L-8.45 -9.3L-9.35 -9.8L-10.85 -10.1L-8.9 -8.05Q-7.1 -7.85 -6.8 -7.25L-5.9 -5.55L-6.8 -6.2L-8.45 -6.65L-6.75 -4.6Q-4.8 -4.25 -4.45 -3.5L-3.65 -1.5L-4.6 -2.3Q-5.3 -2.8 -6.3 -3L-4.85 -0.9Q-2.85 -0.4 -2.5 0.55L-1.8 2.8L-2.75 1.8Q-3.65 1.05 -4.55 0.85L-6.7 0.8L-6.9 0.85L-5.1 5.6Q-2.6 4.75 0.25 4.5Q2.8 4.3 5.2 5.05Q6.1 2.3 6.95 0.45L6.75 0.4L4.6 0.45Q3.6 0.7 2.8 1.4L1.85 2.4L2.55 0.1Q2.85 -0.75 4.9 -1.35L6.35 -3.45Q5.5 -3.3 4.65 -2.75L3.7 -1.9L4.55 -3.9Q4.85 -4.65 6.8 -5L8.5 -7.1Q7.6 -7 6.85 -6.6L5.95 -5.95L6.85 -7.65Q7.15 -8.3 8.95 -8.5L10.9 -10.5L9.4 -10.25L8.5 -9.7L9.45 -11.2Q9.85 -11.75 11.45 -11.75L13.55 -13.7L12.25 -13.6L11.4 -13.2M11.15 4.95L9.9 4.45L8.55 4.55Q8.35 4.6 8.45 4.3L8.75 3.7Q9.15 3.3 10.55 3.45L11.1 3.55L10.4 2.65L9.75 1.95L8.6 1.05L8.4 1Q8 2.4 7.55 4.95L7.35 6.1L9.25 7.1L11.25 5.05L11.15 4.95M-9.85 4.85Q-10.45 4.9 -11.1 5.4L-11.2 5.5L-9.2 7.5L-7.3 6.5L-7.5 5.35Q-7.95 2.8 -8.35 1.4L-8.55 1.45L-10 2.75L-11.05 3.95L-10.5 3.85L-8.7 4.1L-8.35 4.7Q-8.3 5.05 -8.5 4.95L-9.85 4.85"/>
</g>
</svg>
